_includes/icons/color-password.svg

<svg fill="#666" height="50" viewBox="0 0 48 48" width="50" xmlns="http://www.w3.org/2000/svg"><path d="m24 4c-5.515625 0-10 4.484375-10 10v4h4v-4c0-3.308594 2.691406-6 6-6s6 2.691406 6 6v4h4v-4c0-5.515625-4.484375-10-10-10" fill="#424242"/><path d="m37 44h-26c-2.210937 0-4-1.789062-4-4v-18c0-2.210937 1.789063-4 4-4h26c2.210938 0 4 1.789063 4 4v18c0 2.210938-1.789062 4-4 4" fill="#8bc34a"/><g fill="#f1f8e9"><path d="m17 31c0 1.65625-1.34375 3-3 3s-3-1.34375-3-3 1.34375-3 3-3 3 1.34375 3 3"/><path d="m37 31c0 1.65625-1.34375 3-3 3s-3-1.34375-3-3 1.34375-3 3-3 3 1.34375 3 3"/><path d="m27 31c0 1.65625-1.34375 3-3 3s-3-1.34375-3-3 1.34375-3 3-3 3 1.34375 3 3"/></g></svg>

<svg xmlns="http://www.w3.org/2000/svg" viewBox="0 0 48 48" width="50" height="50" fill="#666"><path d="M 24 4 C 18.484375 4 14 8.484375 14 14 L 14 18 L 18 18 L 18 14 C 18 10.691406 20.691406 8 24 8 C 27.308594 8 30 10.691406 30 14 L 30 18 L 34 18 L 34 14 C 34 8.484375 29.515625 4 24 4" fill="#424242"/><path d="M 37 44 L 11 44 C 8.789063 44 7 42.210938 7 40 L 7 22 C 7 19.789063 8.789063 18 11 18 L 37 18 C 39.210938 18 41 19.789063 41 22 L 41 40 C 41 42.210938 39.210938 44 37 44" fill="#8bc34a"/><path d="M 17 31 C 17 32.65625 15.65625 34 14 34 C 12.34375 34 11 32.65625 11 31 C 11 29.34375 12.34375 28 14 28 C 15.65625 28 17 29.34375 17 31" fill="#f1f8e9"/><path d="M 37 31 C 37 32.65625 35.65625 34 34 34 C 32.34375 34 31 32.65625 31 31 C 31 29.34375 32.34375 28 34 28 C 35.65625 28 37 29.34375 37 31" fill="#f1f8e9"/><path d="M 27 31 C 27 32.65625 25.65625 34 24 34 C 22.34375 34 21 32.65625 21 31 C 21 29.34375 22.34375 28 24 28 C 25.65625 28 27 29.34375 27 31" fill="#f1f8e9"/></svg>
